svgs/thin/compress.svg

<svg xmlns="http://www.w3.org/2000/svg" viewBox="0 0 448 512"><!--! Font Awesome Pro 6.6.0 by @fontawesome - https://fontawesome.com License - https://fontawesome.com/license (Commercial License) Copyright 2024 Fonticons, Inc. --><path d="M152 32c4.4 0 8 3.6 8 8l0 144c0 4.4-3.6 8-8 8L8 192c-4.4 0-8-3.6-8-8s3.6-8 8-8l136 0 0-136c0-4.4 3.6-8 8-8zm144 0c4.4 0 8 3.6 8 8l0 136 136 0c4.4 0 8 3.6 8 8s-3.6 8-8 8l-144 0c-4.4 0-8-3.6-8-8l0-144c0-4.4 3.6-8 8-8zM0 328c0-4.4 3.6-8 8-8l144 0c4.4 0 8 3.6 8 8l0 144c0 4.4-3.6 8-8 8s-8-3.6-8-8l0-136L8 336c-4.4 0-8-3.6-8-8zm288 0c0-4.4 3.6-8 8-8l144 0c4.4 0 8 3.6 8 8s-3.6 8-8 8l-136 0 0 136c0 4.4-3.6 8-8 8s-8-3.6-8-8l0-144z"/></svg>

<svg xmlns="http://www.w3.org/2000/svg" viewBox="0 0 448 512"><!--! Font Awesome Pro 6.4.2 by @fontawesome - https://fontawesome.com License - https://fontawesome.com/license (Commercial License) Copyright 2023 Fonticons, Inc. --><path d="M152 32c4.4 0 8 3.6 8 8V184c0 4.4-3.6 8-8 8H8c-4.4 0-8-3.6-8-8s3.6-8 8-8H144V40c0-4.4 3.6-8 8-8zm144 0c4.4 0 8 3.6 8 8V176H440c4.4 0 8 3.6 8 8s-3.6 8-8 8H296c-4.4 0-8-3.6-8-8V40c0-4.4 3.6-8 8-8zM0 328c0-4.4 3.6-8 8-8H152c4.4 0 8 3.6 8 8V472c0 4.4-3.6 8-8 8s-8-3.6-8-8V336H8c-4.4 0-8-3.6-8-8zm288 0c0-4.4 3.6-8 8-8H440c4.4 0 8 3.6 8 8s-3.6 8-8 8H304V472c0 4.4-3.6 8-8 8s-8-3.6-8-8V328z"/></svg>
